<?xml version="1.0" encoding="UTF-8"?>
<map version="1.10" tiledversion="1.12.2" orientation="orthogonal" renderorder="right-down" width="18" height="11" tilewidth="512" tileheight="512" infinite="0" backgroundcolor="#061822" nextlayerid="16" nextobjectid="11">
 <properties>
  <property name="bgm" value="zone1_loop"/>
  <property name="zone_id" value="zone1"/>
  <property name="zone_name" value="Mouth of Echo"/>
 </properties>
 <tileset firstgid="1" name="mossy_ground" tilewidth="512" tileheight="512" tilecount="49" columns="7">
  <image source="mossy-tileset/Mossy - TileSet.png" width="3584" height="3584"/>
  <tile id="0" type="solid">
   <objectgroup draworder="index">
    <object id="1" x="80" y="80" width="432" height="432"/>
   </objectgroup>
  </tile>
  <tile id="1" type="solid">
   <objectgroup draworder="index">
    <object id="2" x="0" y="80" width="512" height="432"/>
   </objectgroup>
  </tile>
  <tile id="2" type="solid">
   <objectgroup draworder="index">
    <object id="3" x="0" y="80" width="432" height="432"/>
   </objectgroup>
  </tile>
  <tile id="3" type="solid">
   <objectgroup draworder="index">
    <object id="4" x="140" y="80" width="232" height="432"/>
   </objectgroup>
  </tile>
  <tile id="7" type="solid">
   <objectgroup draworder="index">
    <object id="5" x="80" y="0" width="432" height="512"/>
   </objectgroup>
  </tile>
  <tile id="8" type="solid">
   <objectgroup draworder="index">
    <object id="6" x="0" y="0" width="512" height="512"/>
   </objectgroup>
  </tile>
  <tile id="9" type="solid">
   <objectgroup draworder="index">
    <object id="7" x="0" y="0" width="432" height="512"/>
   </objectgroup>
  </tile>
  <tile id="10" type="solid">
   <objectgroup draworder="index">
    <object id="8" x="140" y="0" width="232" height="512"/>
   </objectgroup>
  </tile>
  <tile id="14" type="solid">
   <objectgroup draworder="index">
    <object id="9" x="80" y="0" width="432" height="400"/>
   </objectgroup>
  </tile>
  <tile id="15" type="solid">
   <objectgroup draworder="index">
    <object id="10" x="0" y="0" width="512" height="400"/>
   </objectgroup>
  </tile>
  <tile id="16" type="solid">
   <objectgroup draworder="index">
    <object id="11" x="0" y="0" width="432" height="400"/>
   </objectgroup>
  </tile>
  <tile id="17" type="solid">
   <objectgroup draworder="index">
    <object id="12" x="140" y="0" width="232" height="400"/>
   </objectgroup>
  </tile>
  <tile id="21" type="solid">
   <objectgroup draworder="index">
    <object id="13" x="200" y="90" width="312" height="140"/>
   </objectgroup>
  </tile>
  <tile id="22" type="solid">
   <objectgroup draworder="index">
    <object id="14" x="0" y="90" width="512" height="140"/>
   </objectgroup>
  </tile>
  <tile id="23" type="solid">
   <objectgroup draworder="index">
    <object id="15" x="0" y="90" width="280" height="140"/>
   </objectgroup>
  </tile>
  <tile id="24" type="solid">
   <objectgroup draworder="index">
    <object id="16" x="96" y="100" width="320" height="260"/>
   </objectgroup>
  </tile>
 </tileset>
 <layer id="1" name="bg_far" width="18" height="11">
  <data encoding="csv">
0,0,0,0,0,0,0,0,0,0,0,0,0,0,0,0,0,0,
0,0,0,0,0,0,0,0,0,0,0,0,0,0,0,0,0,0,
0,0,0,0,0,0,0,0,0,0,0,0,0,0,0,0,0,0,
0,0,0,0,0,0,0,0,0,0,0,0,0,0,0,0,0,0,
0,0,0,0,0,0,0,0,0,0,0,0,0,0,0,0,0,0,
0,0,0,0,0,0,0,0,0,0,0,0,0,0,0,0,0,0,
0,0,0,0,0,0,0,0,0,0,0,0,0,0,0,0,0,0,
0,0,0,0,0,0,0,0,0,0,0,0,0,0,0,0,0,0,
0,0,0,0,0,0,0,0,0,0,0,0,0,0,0,0,0,0,
0,0,0,0,0,0,0,0,0,0,0,0,0,0,0,0,0,0,
0,0,0,0,0,0,0,0,0,0,0,0,0,0,0,0,0,0
</data>
 </layer>
 <layer id="2" name="bg_near" width="18" height="11">
  <data encoding="csv">
0,0,0,0,0,0,0,0,0,0,0,0,0,0,0,0,0,0,
0,0,0,0,0,0,0,0,0,0,0,0,0,0,0,0,0,0,
0,0,0,0,0,0,0,0,0,0,0,0,0,0,0,0,0,0,
0,0,0,0,0,0,0,0,0,0,0,0,0,0,0,0,0,0,
0,0,0,0,0,0,0,0,0,0,0,0,0,0,0,0,0,0,
0,0,0,0,0,0,0,0,0,0,0,0,0,0,0,0,0,0,
0,0,0,0,0,0,0,0,0,0,0,0,0,0,0,0,0,0,
0,0,0,0,0,0,0,0,0,0,0,0,0,0,0,0,0,0,
0,0,0,0,0,0,0,0,0,0,0,0,0,0,0,0,0,0,
0,0,0,0,0,0,0,0,0,0,0,0,0,0,0,0,0,0,
0,0,0,0,0,0,0,0,0,0,0,0,0,0,0,0,0,0
</data>
 </layer>
 <layer id="3" name="ground" width="18" height="11">
  <data encoding="csv">
0,0,0,0,0,0,0,0,0,0,0,0,0,0,0,0,0,0,
0,0,0,0,0,0,0,0,0,0,0,0,0,0,0,0,0,0,
0,0,0,0,0,0,0,0,0,0,0,0,25,0,0,0,0,0,
0,0,0,0,22,23,24,0,0,0,0,0,0,0,0,0,0,0,
0,0,0,0,0,0,0,0,0,25,0,0,0,0,0,0,0,0,
0,0,0,0,0,0,0,0,0,0,0,0,0,0,0,0,0,0,
0,0,0,0,0,0,0,0,0,0,0,0,0,0,0,0,0,0,
1,2,2,2,3,0,0,0,0,0,0,0,0,0,0,0,0,0,
8,9,9,9,10,0,0,0,0,0,0,0,0,1,2,2,2,2,
8,9,9,9,10,0,0,0,4,0,0,0,0,8,9,9,9,9,
15,16,16,16,17,0,0,0,11,0,0,0,0,8,9,9,9,9
</data>
 </layer>
 <layer id="4" name="platforms" width="18" height="11">
  <data encoding="csv">
0,0,0,0,0,0,0,0,0,0,0,0,0,0,0,0,0,0,
0,0,0,0,0,0,0,0,0,0,0,0,0,0,0,0,0,0,
0,0,0,0,0,0,0,0,0,0,0,0,0,0,0,0,0,0,
0,0,0,0,0,0,0,0,0,0,0,0,0,0,0,0,0,0,
0,0,0,0,0,0,0,0,0,0,0,0,0,0,0,0,0,0,
0,0,0,0,0,0,0,0,0,0,0,0,0,0,0,0,0,0,
0,0,0,0,0,0,0,0,0,0,0,0,0,0,0,0,0,0,
0,0,0,0,0,0,0,0,0,0,0,0,0,0,0,0,0,0,
0,0,0,0,0,0,0,0,0,0,0,0,0,0,0,0,0,0,
0,0,0,0,0,0,0,0,0,0,0,0,0,0,0,0,0,0,
0,0,0,0,0,0,0,0,0,0,0,0,0,0,0,0,0,0
</data>
 </layer>
 <layer id="5" name="deco" width="18" height="11">
  <data encoding="csv">
23,23,24,0,0,0,0,0,0,0,0,0,0,0,0,0,0,0,
0,0,0,0,0,0,0,0,0,0,0,0,0,0,0,0,0,0,
0,0,0,0,0,0,0,0,0,0,0,0,0,0,0,0,0,0,
0,0,0,0,0,0,0,0,0,0,0,0,0,0,0,0,0,0,
0,0,0,0,0,0,0,0,0,0,0,0,0,0,0,0,0,0,
0,0,0,0,0,0,0,0,0,0,0,0,0,0,0,0,0,0,
0,0,0,0,0,0,0,0,0,0,0,0,0,0,0,0,0,0,
0,0,0,0,0,0,0,0,0,0,0,0,0,0,0,0,0,0,
0,0,0,0,0,0,0,0,0,0,0,0,0,0,0,0,0,0,
0,0,0,0,0,0,0,0,0,0,0,0,0,0,0,0,0,0,
0,0,0,0,0,0,0,0,0,0,0,0,0,0,0,0,0,0
</data>
 </layer>
 <layer id="6" name="fg" width="18" height="11">
  <data encoding="csv">
0,0,0,0,0,0,0,0,0,0,0,0,0,0,0,0,0,0,
0,0,0,0,0,0,0,0,0,0,0,0,0,0,0,0,0,0,
0,0,0,0,0,0,0,0,0,0,0,0,0,0,0,0,0,0,
0,0,0,0,0,0,0,0,0,0,0,0,0,0,0,0,0,0,
0,0,0,0,0,0,0,0,0,0,0,0,0,0,0,0,0,0,
0,0,0,0,0,0,0,0,0,0,0,0,0,0,0,0,0,0,
0,0,0,0,0,0,0,0,0,0,0,0,0,0,0,0,0,0,
0,0,0,0,0,0,0,0,0,0,0,0,0,0,0,0,0,0,
0,0,0,0,0,0,0,0,0,0,0,0,0,0,0,0,0,0,
0,0,0,0,0,0,0,0,0,0,0,0,0,0,0,0,0,0,
0,0,0,0,0,0,0,0,0,0,0,0,0,0,0,0,0,0
</data>
 </layer>
 <objectgroup id="7" name="obj_spawn"/>
 <objectgroup id="8" name="obj_checkpoints"/>
 <objectgroup id="9" name="obj_spikes"/>
 <objectgroup id="10" name="obj_hazards"/>
 <objectgroup id="11" name="obj_enemies"/>
 <objectgroup id="12" name="obj_tablets"/>
 <objectgroup id="13" name="obj_meta">
  <object id="3" name="bounds" type="camera_bounds" x="0" y="0" width="9216" height="5632"/>
  <object id="4" name="intro" type="segment" x="0" y="0" width="9216" height="5632">
   <properties>
    <property name="id" value="seg_intro"/>
    <property name="soft_checkpoint_after_deaths" type="int" value="5"/>
   </properties>
  </object>
  <object id="10" x="895.749" y="6450.34" width="80.2344" height="18.8438">
   <text wrap="1">Hello World</text>
  </object>
 </objectgroup>
</map>
